packages/foundations/assets/icons/functional/images/social/face_sad.svg

<svg xmlns="http://www.w3.org/2000/svg" width="32" height="32" fill="none"><path fill="#1A1C1F" fill-rule="evenodd" d="M15.12 4.032c-1.759.182-3.011.524-4.378 1.196a11.92 11.92 0 0 0-5.52 5.519 11.97 11.97 0 0 0 1.427 12.761c.77.96 1.778 1.872 2.844 2.571 1.079.708 2.675 1.372 3.963 1.65a12.01 12.01 0 0 0 13.322-6.476 11.97 11.97 0 0 0-1.427-12.761 12.07 12.07 0 0 0-7.591-4.357c-.545-.082-2.211-.147-2.64-.103m2.56 1.802c4.017.685 7.273 3.662 8.292 7.579.278 1.071.389 2.541.272 3.627-.47 4.383-3.622 7.98-7.876 8.991-1.113.264-2.645.338-3.748.182-4.562-.649-8.072-4.11-8.815-8.693-.091-.561-.091-2.479 0-3.04.475-2.932 2.059-5.417 4.495-7.054 1.214-.817 2.8-1.427 4.18-1.609.235-.031.499-.066.587-.079.343-.048 2.156.018 2.613.096m-5.559 5.207a2.09 2.09 0 0 0-1.434 1.134c-.135.292-.154.393-.154.838 0 .439.02.548.144.813.183.391.6.807.99.991.269.125.372.143.84.143.476 0 .566-.016.838-.15 1.363-.669 1.548-2.49.345-3.399-.427-.323-1.067-.474-1.569-.37m7.025-.003c-.386.069-.751.269-1.071.587-.403.4-.55.771-.552 1.388-.001.4.019.496.168.812.202.431.543.779.964.985.272.134.362.15.838.15.468 0 .571-.018.84-.143.391-.184.808-.601.989-.991.121-.262.142-.378.143-.813.001-.448-.016-.545-.153-.841-.372-.806-1.296-1.29-2.166-1.134m-3.973 6.513c-1.55.16-3.28.908-4.515 1.953-.395.335-.508.484-.586.778-.085.316-.001.609.255.892.368.408.899.43 1.365.058 1.13-.902 1.859-1.287 2.964-1.565.672-.169 2.018-.169 2.692.001.958.241 1.865.7 2.692 1.363.506.405.62.462.92.462.403 0 .73-.219.912-.613.283-.611-.059-1.118-1.321-1.955-1.633-1.085-3.514-1.565-5.378-1.374"/></svg>

<svg width="32" height="32" viewBox="0 0 32 32" fill="none" xmlns="http://www.w3.org/2000/svg"><path d="M15.120 4.032 C 13.361 4.214,12.109 4.556,10.742 5.228 C 8.306 6.424,6.413 8.318,5.222 10.747 C 3.181 14.911,3.736 19.872,6.649 23.508 C 7.419 24.468,8.427 25.380,9.493 26.079 C 10.572 26.787,12.168 27.451,13.456 27.729 C 18.856 28.892,24.340 26.226,26.778 21.253 C 28.819 17.089,28.264 12.128,25.351 8.492 C 23.477 6.153,20.746 4.586,17.760 4.135 C 17.215 4.053,15.549 3.988,15.120 4.032 M17.680 5.834 C 21.697 6.519,24.953 9.496,25.972 13.413 C 26.250 14.484,26.361 15.954,26.244 17.040 C 25.774 21.423,22.622 25.020,18.368 26.031 C 17.255 26.295,15.723 26.369,14.620 26.213 C 10.058 25.564,6.548 22.103,5.805 17.520 C 5.714 16.959,5.714 15.041,5.805 14.480 C 6.280 11.548,7.864 9.063,10.300 7.426 C 11.514 6.609,13.100 5.999,14.480 5.817 C 14.715 5.786,14.979 5.751,15.067 5.738 C 15.410 5.690,17.223 5.756,17.680 5.834 M12.121 11.041 C 11.507 11.168,10.948 11.610,10.687 12.175 C 10.552 12.467,10.533 12.568,10.533 13.013 C 10.533 13.452,10.553 13.561,10.677 13.826 C 10.860 14.217,11.277 14.633,11.667 14.817 C 11.936 14.942,12.039 14.960,12.507 14.960 C 12.983 14.960,13.073 14.944,13.345 14.810 C 14.708 14.141,14.893 12.320,13.690 11.411 C 13.263 11.088,12.623 10.937,12.121 11.041 M19.146 11.038 C 18.760 11.107,18.395 11.307,18.075 11.625 C 17.672 12.025,17.525 12.396,17.523 13.013 C 17.522 13.413,17.542 13.509,17.691 13.825 C 17.893 14.256,18.234 14.604,18.655 14.810 C 18.927 14.944,19.017 14.960,19.493 14.960 C 19.961 14.960,20.064 14.942,20.333 14.817 C 20.724 14.633,21.141 14.216,21.322 13.826 C 21.443 13.564,21.464 13.448,21.465 13.013 C 21.466 12.565,21.449 12.468,21.312 12.172 C 20.940 11.366,20.016 10.882,19.146 11.038 M15.173 17.551 C 13.623 17.711,11.893 18.459,10.658 19.504 C 10.263 19.839,10.150 19.988,10.072 20.282 C 9.987 20.598,10.071 20.891,10.327 21.174 C 10.695 21.582,11.226 21.604,11.692 21.232 C 12.822 20.330,13.551 19.945,14.656 19.667 C 15.328 19.498,16.674 19.498,17.348 19.668 C 18.306 19.909,19.213 20.368,20.040 21.031 C 20.546 21.436,20.660 21.493,20.960 21.493 C 21.363 21.493,21.690 21.274,21.872 20.880 C 22.155 20.269,21.813 19.762,20.551 18.925 C 18.918 17.840,17.037 17.360,15.173 17.551 " fill="#1A1C1F" stroke="none" fill-rule="evenodd"></path></svg>
